modules/hawcons-filled/icons/icon-108-folder-bookmark.svg

<?xml version="1.0" encoding="UTF-8" standalone="no"?>
<svg width="32px" height="32px" viewBox="0 0 32 32" version="1.1" xmlns="http://www.w3.org/2000/svg" xmlns:xlink="http://www.w3.org/1999/xlink" xmlns:sketch="http://www.bohemiancoding.com/sketch/ns">
    <!-- Generator: Sketch 3.0.3 (7891) - http://www.bohemiancoding.com/sketch -->
    <title>icon 108 folder bookmark</title>
    <desc>Created with Sketch.</desc>
    <defs></defs>
    <g id="Page-1" stroke="none" stroke-width="1" fill="none" fill-rule="evenodd" sketch:type="MSPage">
        <g id="icon-108-folder-bookmark" sketch:type="MSArtboardGroup" fill="#929292">
            <path d="M24,14 L31,14 L31,25.0049107 C31,26.1073772 30.1075748,27 29.0067126,27 L3.99328744,27 C2.89971268,27 2,26.1085295 2,25.008845 L2,14 L2,14 L18,14 L18,23 L21,20 L24,23 L24,14 L24,14 Z M2,13 L2,6.991155 C2,5.88967395 2.89666625,5 4.00276013,5 L15,5 L17,9 L28.9941413,9 C30.1029399,9 31,9.8932319 31,10.9950893 L31,13 L2,13 L2,13 L2,13 Z M19,14 L19,20.5999756 L21,18.5999756 L23,20.5999756 L23,14 L19,14 L19,14 Z" id="folder-bookmark" sketch:type="MSShapeGroup"></path>
        </g>
    </g>
</svg>

<svg width="32" height="32" xmlns="http://www.w3.org/2000/svg"><path d="M24 14h7v11.005A1.994 1.994 0 0 1 29.007 27H3.993A1.997 1.997 0 0 1 2 25.009V14h16v9l3-3 3 3v-9zM2 13V6.991C2 5.89 2.897 5 4.003 5H15l2 4h11.994A2 2 0 0 1 31 10.995V13H2zm17 1v6.6l2-2 2 2V14h-4z" fill="#929292" fill-rule="evenodd"/></svg>
